icon/gr/drag.svg

<svg xmlns="http://www.w3.org/2000/svg" width="24" height="24"><path fill="none" stroke="#000" stroke-width="2" d="M15 5h2V3h-2v2ZM7 5h2V3H7v2Zm8 8h2v-2h-2v2Zm-8 0h2v-2H7v2Zm8 8h2v-2h-2v2Zm-8 0h2v-2H7v2Z"/></svg>

<svg xmlns="http://www.w3.org/2000/svg" viewBox="0 0 24 24" height="1em" width="1em">
  <path fill="none" stroke="#000" stroke-width="2" d="M15,5 L17,5 L17,3 L15,3 L15,5 Z M7,5 L9,5 L9,3 L7,3 L7,5 Z M15,13 L17,13 L17,11 L15,11 L15,13 Z M7,13 L9,13 L9,11 L7,11 L7,13 Z M15,21 L17,21 L17,19 L15,19 L15,21 Z M7,21 L9,21 L9,19 L7,19 L7,21 Z"/>
</svg>
